icon-themes/breeze_svg/cmd/sc_mergedialog.svg

<svg viewBox="0 0 16 16" xmlns="http://www.w3.org/2000/svg">/&gt;<path d="m1 2v12h7v-1h-5.34375l3.9863281-4.6503906.3574219.3574218v-1.4140624l-4.2929688-4.2929688h10.5859378l-3 3h1.414062c1.040139-1.0399696 2.292969-2.2929685 2.292969-2.2929688v3.2929688h1v-5zm1 1.7070312 3.9335938 3.9335938-3.9335938 4.589844zm7.5 3.2929688-.53125.96875-.96875.53125.96875.53125.53125.96875.53125-.96875.96875-.53125-.96875-.53125zm4.0625 1-1.75 1.75-.25.25-1 1-.75.75-.25.25-.5625.5625 1.4375 1.4375.5625-.5625.25-.25 1.75-1.75.25-.25 1.75-1.75zm0 .71875.71875.71875-1.390625 1.390625-.71875-.71875z" fill="#4d4d4d"/></svg>

<svg xmlns="http://www.w3.org/2000/svg" viewBox="0 0 16 16">
     />
 <path 
     style="fill:#4d4d4d" 
     d="M 1 2 L 1 14 L 8 14 L 8 13 L 2.65625 13 L 6.6425781 8.3496094 L 7 8.7070312 L 7 7.2929688 L 2.7070312 3 L 13.292969 3 L 10.292969 6 L 11.707031 6 C 12.74717 4.9600304 14 3.7070315 14 3.7070312 L 14 7 L 15 7 L 15 2 L 1 2 z M 2 3.7070312 L 5.9335938 7.640625 L 2 12.230469 L 2 3.7070312 z M 9.5 7 L 8.96875 7.96875 L 8 8.5 L 8.96875 9.03125 L 9.5 10 L 10.03125 9.03125 L 11 8.5 L 10.03125 7.96875 L 9.5 7 z M 13.5625 8 L 11.8125 9.75 L 11.5625 10 L 10.5625 11 L 9.8125 11.75 L 9.5625 12 L 9 12.5625 L 10.4375 14 L 11 13.4375 L 11.25 13.1875 L 13 11.4375 L 13.25 11.1875 L 15 9.4375 L 13.5625 8 z M 13.5625 8.71875 L 14.28125 9.4375 L 12.890625 10.828125 L 12.171875 10.109375 L 13.5625 8.71875 z "
     />
 </svg>
